svgs/cco/text-give-o.svg

<svg xmlns="http://www.w3.org/2000/svg" viewBox="0 0 16 16" class="symbol symbol-text-give-o" aria-labelledby="title" role="img"><title id="title">text-give-o icon</title><g data-name="Layer 1"><path class="cls-1" d="M15.023 11.916a.146.146 0 0 1-.146.147H6.24l-.252.168-2.834 1.886-.01-1.064-.009-.991-2 .022a.146.146 0 0 1-.148-.146L.969 1.364a.146.146 0 0 1 .146-.147h13.739a.146.146 0 0 1 .146.146zm0-11.7H.969a.977.977 0 0 0-.977.977v10.893a.977.977 0 0 0 .977.977h1.175l.021 2.34a.309.309 0 0 0 .48.255l3.9-2.594h8.481a.977.977 0 0 0 .974-.978V1.194a.977.977 0 0 0-.977-.977z" role="presentation"/><path class="cls-2" d="M5.413 5.519c-.354-.295-.812-.081-1.136.249l-.186.218-.191-.218c-.324-.329-.778-.544-1.132-.249A.9.9 0 0 0 2.7 6.84l.155.16 1.139 1.16a.137.137 0 0 0 .2 0L5.48 6.84a.9.9 0 0 0-.067-1.321zm7.768 0c-.354-.295-.812-.081-1.136.249l-.186.218-.19-.218c-.324-.329-.778-.544-1.132-.249a.9.9 0 0 0-.067 1.321l.152.16 1.139 1.16a.137.137 0 0 0 .2 0l1.287-1.32a.9.9 0 0 0-.067-1.321zm-3.881 0c-.354-.295-.812-.081-1.136.249l-.186.218-.19-.218c-.324-.329-.778-.544-1.132-.249a.9.9 0 0 0-.07 1.321l.152.16 1.139 1.16a.137.137 0 0 0 .2 0l1.287-1.32A.9.9 0 0 0 9.3 5.519z" role="presentation"/></g></svg>

<svg xmlns="http://www.w3.org/2000/svg" viewBox="0 0 16 16" aria-labelledby="title" role="img" class="symbol symbol-text-give-o"><title id="title">text-give-o icon</title><g id="Layer_1" data-name="Layer 1"><path d="M15,11.92a.15.15,0,0,1-.15.15H6.24L6,12.23,3.15,14.12V12.06l-2,0A.15.15,0,0,1,1,11.94L1,1.36a.15.15,0,0,1,.15-.15H14.85a.15.15,0,0,1,.15.15ZM15,.22H1a1,1,0,0,0-1,1V12.09a1,1,0,0,0,1,1H2.14l0,2.34a.31.31,0,0,0,.48.25l3.9-2.59H15a1,1,0,0,0,1-1V1.19a1,1,0,0,0-1-1Z" style="fill:#231f20" role="presentation"/><path d="M5.41,5.52c-.35-.29-.81-.08-1.14.25L4.09,6,3.9,5.77c-.32-.33-.78-.54-1.13-.25A.9.9,0,0,0,2.7,6.84L2.85,7,4,8.16a.14.14,0,0,0,.2,0L5.48,6.84A.9.9,0,0,0,5.41,5.52Z" style="fill:#010201" role="presentation"/><path d="M13.18,5.52c-.35-.29-.81-.08-1.14.25L11.86,6l-.19-.22c-.32-.33-.78-.54-1.13-.25a.9.9,0,0,0-.07,1.32l.15.15,1.14,1.16a.14.14,0,0,0,.2,0l1.29-1.31A.9.9,0,0,0,13.18,5.52Z" style="fill:#010201" role="presentation"/><path d="M9.3,5.52c-.35-.29-.81-.08-1.14.25L8,6l-.19-.22c-.32-.33-.78-.54-1.13-.25a.9.9,0,0,0-.07,1.32L6.74,7,7.88,8.16a.14.14,0,0,0,.2,0L9.36,6.84A.9.9,0,0,0,9.3,5.52Z" style="fill:#010201" role="presentation"/></g></svg>
